icons/bhi_calendar.svg

<svg xmlns="http://www.w3.org/2000/svg" viewBox="0 0 512 512" enable-background="new 0 0 512 512"><g fill="#010101"><path d="M212.9 395.2h-36.2v-99.1l.3-16.3.6-17.8c-6 6-10.2 10-12.5 11.8l-19.7 15.8-17.4-21.7 55.2-43.9h29.7v171.2zM376.9 359.7h-20.6v35.5h-35.4v-35.5h-73.1v-25.2l75-110.5h33.4v107.6h20.6l.1 28.1zm-56-28.1v-29c0-4.8.2-11.9.6-21.1.4-9.2.7-14.5.9-16h-.9c-2.9 6.4-6.4 12.7-10.4 18.7l-31.4 47.4h41.2z"/></g><path fill="#010101" d="M428.3 50.5h-44.3v-51.3h-64v51.3h-128v-51.3h-64v51.3h-32c-28.5 0-63.8 23.1-63.8 51.3l-.2 359c0 28.2 22.8 51.3 51.3 51.3h345c28.2 0 51.3-23.1 51.3-51.3v-359c-.1-28.3-23.1-51.3-51.3-51.3zm-12.3 397.5h-320v-288h320v288z"/></svg>

<?xml version="1.0" encoding="utf-8"?>
<!-- Generator: Adobe Illustrator 19.2.0, SVG Export Plug-In . SVG Version: 6.00 Build 0)  -->
<svg version="1.1" id="Layer_1" xmlns="http://www.w3.org/2000/svg" xmlns:xlink="http://www.w3.org/1999/xlink" x="0px" y="0px"
	 viewBox="0 0 512 512" enable-background="new 0 0 512 512" xml:space="preserve">
<g>
	<g>
		<path fill="#010101" d="M212.9,395.2h-36.2v-99.1l0.3-16.3l0.6-17.8c-6,6-10.2,10-12.5,11.8l-19.7,15.8L128,267.9l55.2-43.9h29.7
			L212.9,395.2L212.9,395.2z"/>
		<path fill="#010101" d="M376.9,359.7h-20.6v35.5h-35.4v-35.5h-73.1v-25.2l75-110.5h33.4v107.6h20.6L376.9,359.7L376.9,359.7z
			 M320.9,331.6v-29c0-4.8,0.2-11.9,0.6-21.1c0.4-9.2,0.7-14.5,0.9-16h-0.9c-2.9,6.4-6.4,12.7-10.4,18.7l-31.4,47.4H320.9z"/>
	</g>
</g>
<path fill="#010101" d="M428.3,50.5H384V-0.8h-64v51.3H192V-0.8h-64v51.3H96c-28.5,0-63.8,23.1-63.8,51.3l-0.2,359
	c0,28.2,22.8,51.3,51.3,51.3h345c28.2,0,51.3-23.1,51.3-51.3v-359C479.5,73.5,456.5,50.5,428.3,50.5z M416,448H96V160h320L416,448
	L416,448z"/>
</svg>
